!! 00033] TT[TB
!!    Hubei minge xuan
!! Zh. Ch. M-2850, M 82/5699), Peking: LP 33867/868)
!!!OTL: Xiuchu Siji chun
!!!ARE: Asia, China,ÿHubei, Jianshi
!! Ethnic Group: Han
!! I, 381
!!!SCT: C1020
!!!YEM: Copyright 1995, estate of Helmut Schaffrath.
**kern
*ICvox
*Ivox
*M2/4
*k[f#c#]
*D:
{4b
4dd
=1
8dd
4b
8b
=2
4dd
4dd
=3
2b}
=4
{4dd
8b
8dd
=5
4ee
8ee
8dd
=6
4a
8b
8dd
=7
8dd
4b
8r}
=8
{8b
8dd
8bb
8dd
=9
4ee
8ee
8dd
=10
4a
8b
8dd
=11
4b
4r}
=12
{8b
8dd
8b
8dd
=13
8.a
16b
4dd
=14
8b
16b
16dd
8dd
8b
=15
2a}
=16
{8dd
8dd
8b
8dd
=17
8ee
8b
8.dd
16b
=18
8b
8b
8dd
8b
=19
2a}
==
!!!AGN: Wuge, Xihuagu. Xin minge
!! Plattenhuelle kopiert.
!!    Vereinzelt Verzierungen.
!!!ONB: ESAC (Essen Associative Code) Database: CHINA
!!!AMT: simple duple
!!!AIN: vox
!!!EED: Helmut Schaffrath
!!!EEV: 1.0
*-
